!!!Genre:	Dobranotsh
!!!Mode:	Minor
!!!Edition:	2001
!!!Listening/dance:	listening
!!!Free rhythm?:	No
!!!Secondary Modes:	All minor
!!!One_Mode:	no
!!!Orig_tonic: G
**kern
*I"P1
*clefG2
*k[b-e-]
*g:
*M3/4
=1
4gg
4gg
4gg
=2
4aa-X
4gg
4ff
=3
4ee-
4dd
4ff
=4
2.cc
=5
4ff
4ff
4ff
=6
(8ffL
16ggL
16ffJJ)
4ee-
4dd
=7
4cc
4b-
4dd
=8
2cc
(8b-L
8aJ)
=9
4b-
4a
4b-
=10
4cc
4dd-X
8eenL
8ffJ
=11
4.gg
8ff
8eenL
8dd-XJ
=12
2cc
8b-L
8aJ
=13
4b-
4ddn
12ffL
12ee-
12ddJ
=14
4dd
4b-
12ee-L
12dd
12ccJ
=15
4.b-
8cc
8aL
8b-J
=
2g
8r
=16||
*>bM
*B-
*>B
24fLL
24g
24aJJ
=17
4b-
4f
8b-L
8ccJ
=18
4dd
4b-
8ddL
8ee-J
=19
4ff
4dd
12bb-L
12aa
12ggJ
=20
2ff
4dd
=21
4gg
4gg
4gg
=22
(8ggL
16aaL
16ggJJ)
4ff
4ee-
=23
2dd
8ccL
8b-J
=24
2.dd
=25
4cc
4cc
4cc
=26
(8ccL
16ddL
16ccJJ)
4b-
4cc
=27
4dd
4dd
4dd
=28
(8ddL
16ee-L
16ddJJ)
4cc
4dd
=29
(8ee-L
16ffL
16ee-JJ)
4dd
4ee-
=30
4gg
4ff
4ee-
=31
4.dd
8b-
8ccL
8aJ
=32
2b-
4r
*>eM
*g:
=33||
*>C
(8qb-/
4bb-)
4aa
4gg
=34
4ff
4ee-
4dd
=35
(8qb-/
4gg)
4ff
4ee-
=36
4dd
4cc
4b-
=37
4a
4b-
4cc
=38
4dd
4ee-
4cc
=39
4b-
4f
4d
=40
4ff
4ee-
4dd
=41
(8qb-/
4bb-)
4aa
4gg
=42
4ff
4ee-
4dd
=43
(8qb-/
4gg)
4ff
4ee-
=44
4dd
4cc
4b-
=45
4a
4b-
4cc
=46
4dd
4ee-
4cc
=47
4.b-
8cc
8aL
8b-J
=48
2.g
==
*-
